X: 12365
T: Falun Fine
R: reel
M: 4/4
K: Dmajor
ABde|:a2gf d3a|gfd2 fgfd|BBAB BABB|ABBA BBBA|
d2c(d d3) f|fe e/e/e dcdf|gB B/B/B A3 c|dc c/c/c cBBA:|
|:d2 c(B B)dcB|ccB2 fede|efdc c2 B2|abfd dfed|
efab baag|gffe eddB|cd c(B B)dcB|ccB2 fede|
efdc c2 B2|abfd dfed|efab baag|gffe eddB:|

